resources/svg/search-close.svg

<svg xmlns="http://www.w3.org/2000/svg" width="25" height="25" viewBox="0 0 25 25" fill="none">
                        <g clip-path="url(#clip0_3607_4565)">
                        <path d="M12.5 0.75C10.1761 0.75 7.90433 1.43913 5.97206 2.73023C4.03978 4.02134 2.53375 5.85644 1.64442 8.00347C0.755091 10.1505 0.522402 12.513 0.975778 14.7923C1.42915 17.0716 2.54823 19.1652 4.1915 20.8085C5.83477 22.4518 7.92842 23.5709 10.2077 24.0242C12.487 24.4776 14.8495 24.2449 16.9965 23.3556C19.1436 22.4663 20.9787 20.9602 22.2698 19.028C23.5609 17.0957 24.25 14.8239 24.25 12.5C24.2465 9.38478 23.0074 6.39817 20.8046 4.19537C18.6018 1.99258 15.6152 0.753511 12.5 0.75ZM12.5 23.25C10.3739 23.25 8.29545 22.6195 6.52763 21.4383C4.7598 20.2571 3.38194 18.5782 2.5683 16.6138C1.75466 14.6495 1.54177 12.4881 1.95656 10.4028C2.37135 8.31748 3.39519 6.40202 4.89861 4.8986C6.40202 3.39519 8.31749 2.37135 10.4028 1.95656C12.4881 1.54177 14.6495 1.75465 16.6139 2.5683C18.5782 3.38194 20.2571 4.75979 21.4383 6.52762C22.6195 8.29545 23.25 10.3739 23.25 12.5C23.2468 15.3501 22.1132 18.0825 20.0978 20.0978C18.0825 22.1132 15.3501 23.2468 12.5 23.25Z" fill="#fff"></path>
                        <path d="M16.6007 8.40015C16.5543 8.35371 16.4992 8.31687 16.4385 8.29173C16.3779 8.2666 16.3129 8.25366 16.2472 8.25366C16.1815 8.25366 16.1165 8.2666 16.0559 8.29173C15.9952 8.31687 15.9401 8.35371 15.8937 8.40015L12.5009 11.7929L9.10804 8.40015C9.01422 8.30668 8.88715 8.25426 8.75472 8.25439C8.62229 8.25452 8.49533 8.30718 8.40168 8.40082C8.30804 8.49446 8.25538 8.62143 8.25525 8.75386C8.25513 8.88629 8.30755 9.01336 8.40101 9.10718L11.7938 12.4999L8.40101 15.8926C8.35444 15.939 8.31748 15.9941 8.29224 16.0548C8.26699 16.1155 8.25397 16.1806 8.25391 16.2463C8.25384 16.312 8.26674 16.3771 8.29187 16.4379C8.317 16.4986 8.35386 16.5538 8.40034 16.6003C8.44682 16.6468 8.50201 16.6836 8.56275 16.7088C8.62349 16.7339 8.68859 16.7468 8.75433 16.7467C8.82006 16.7467 8.88514 16.7336 8.94583 16.7084C9.00653 16.6831 9.06165 16.6462 9.10804 16.5996L12.5009 13.2069L15.8937 16.5996C15.9875 16.6931 16.1146 16.7455 16.247 16.7454C16.3794 16.7452 16.5064 16.6926 16.6 16.5989C16.6937 16.5053 16.7464 16.3783 16.7465 16.2459C16.7466 16.1135 16.6942 15.9864 16.6007 15.8926L13.2079 12.4999L16.6007 9.10718C16.6472 9.06076 16.684 9.00565 16.7091 8.94499C16.7343 8.88434 16.7472 8.81932 16.7472 8.75366C16.7472 8.68801 16.7343 8.62299 16.7091 8.56233C16.684 8.50167 16.6472 8.44656 16.6007 8.40015Z" fill="#fff"></path>
                        </g>
                        <defs>
                        <clipPath id="clip0_3607_4565">
                            <rect width="25" height="25" fill="white"></rect>
                        </clipPath>
                        </defs>
                    </svg>

<svg xmlns="http://www.w3.org/2000/svg" width="25" height="25" fill="none"><g clip-path="url(#a)" fill="#fff"><path d="M12.5.8a11.8 11.8 0 1 0 0 23.5 11.8 11.8 0 0 0 0-23.6Zm0 22.4a10.8 10.8 0 1 1 0-21.5 10.8 10.8 0 0 1 0 21.6Z"/><path d="M16.6 8.4a.5.5 0 0 0-.7 0l-3.4 3.4-3.4-3.4a.5.5 0 0 0-.7.7l3.4 3.4-3.4 3.4a.5.5 0 1 0 .7.7l3.4-3.4 3.4 3.4a.5.5 0 0 0 .7-.7l-3.4-3.4 3.4-3.4a.5.5 0 0 0 0-.7Z"/></g><defs><clipPath id="a"><path fill="#fff" d="M0 0h25v25H0z"/></clipPath></defs></svg>
